config.ocio
# OpenColorIO configuration file for Blender, adapted for PixelCore
#
# ACEScg and ACES2065-1 spaces using OpenColorIO's BuiltinTransform
# Camera input color space adapted from OpenColorIO-Config-ACES configs.
#
# Filmic Dynamic Range LUT configuration crafted by Troy James Sobotka with
# special thanks and feedback from Guillermo, Claudio Rocha, Bassam Kurdali,
# Eugenio Pignataro, Henri Hebeisen, Jason Clarke, Haarm-Peter Duiker, Thomas
# Mansencal, and Timothy Lottes.
#
# Based on original AgX by Troy Sobotka: https://github.com/sobotka/AgX https://github.com/sobotka/SB2383-Configuration-Generation
# Further Developed by Zijun Eary Zhou法纤净, Mark Faderbauer, and Sakari Kapanen
# Repository for this version: https://github.com/EaryChow/AgX
#
# See ocio-license.txt for details.

ocio_profile_version: 2.5

search_path: [icc, luts, filmic]

strictparsing: true
luma: [0.2126, 0.7152, 0.0722]

name: PixelCore AgX 2026.8.1
description: |
  Based on Blender 5.2 configuration.
  AgX by Troy James Sobotka.
  RRT version ut33

roles:
  reference: ACES2065-1

  # Internal scene linear space
  scene_linear: Linear Rec.709
  rendering: Linear Rec.709

  # Default color space for byte image
  default_byte: sRGB

  # Default color space for float images
  default_float: Linear Rec.709

  # Default color space sequencer is working in
  default_sequencer: sRGB

  # Distribution of colors in color picker
  color_picking: sRGB

  # Non-color data
  data: Non-Color

  # For interop between configs, and to determine XYZ for rendering
  aces_interchange: ACES2065-1
  cie_xyz_d65_interchange: Linear CIE-XYZ D65

  # Specified by OCIO, not used in Blender
  color_timing: AgX Log
  compositing_log: AgX Log
  default: Linear Rec.709
  matte_paint: Linear Rec.709
  texture_paint: Linear Rec.709

displays:
  sRGB:
    - !<View> {name: Standard, view_transform: Standard, display_colorspace: sRGB}
    - !<View> {name: ACES 1.3, view_transform: ACES 1.3 Rec.1886, display_colorspace: sRGB}
    - !<View> {name: ACES 2.0, view_transform: ACES 2.0 Rec.1886, display_colorspace: sRGB}
    - !<View> {name: Khronos PBR Neutral, view_transform: Khronos PBR Neutral sRGB, display_colorspace: sRGB}
    - !<View> {name: AgX, view_transform: AgX Base Rec.1886, display_colorspace: sRGB}
    - !<View> {name: AgX Punchy, view_transform: AgX Base Rec.1886, display_colorspace: sRGB, looks: AgX - Punchy}
    - !<View> {name: AgX Greyscale, view_transform: AgX Base Rec.1886, display_colorspace: sRGB, looks: AgX - Greyscale}
    - !<View> {name: Filmic, view_transform: Filmic sRGB, display_colorspace: sRGB}
    - !<View> {name: Filmic Log, colorspace: Filmic Log}
    - !<View> {name: False Color, view_transform: AgX False Color Rec.709, display_colorspace: sRGB}
    - !<View> {name: Raw, colorspace: Non-Color}
  Display P3:
    - !<View> {name: Standard, view_transform: Standard, display_colorspace: Display P3}
    - !<View> {name: ACES 1.3, view_transform: ACES 1.3 Display P3, display_colorspace: Display P3}
    - !<View> {name: ACES 2.0, view_transform: ACES 2.0 Display P3, display_colorspace: Display P3}
    - !<View> {name: AgX, view_transform: AgX Base Display P3, display_colorspace: Display P3}
    - !<View> {name: AgX Punchy, view_transform: AgX Base Display P3, display_colorspace: Display P3, looks: AgX - Punchy}
    - !<View> {name: AgX Greyscale, view_transform: AgX Base Display P3, display_colorspace: Display P3, looks: AgX - Greyscale}
    - !<View> {name: False Color, view_transform: AgX False Color Rec.709, display_colorspace: Display P3}
    - !<View> {name: Raw, colorspace: Non-Color}
  Rec.1886:
    - !<View> {name: Standard, view_transform: Standard, display_colorspace: Rec.1886}
    - !<View> {name: ACES 1.3, view_transform: ACES 1.3 Rec.1886, display_colorspace: Rec.1886}
    - !<View> {name: ACES 2.0, view_transform: ACES 2.0 Rec.1886, display_colorspace: Rec.1886}
    - !<View> {name: AgX, view_transform: AgX Base Rec.1886, display_colorspace: Rec.1886}
    - !<View> {name: AgX Punchy, view_transform: AgX Base Rec.1886, display_colorspace: Rec.1886, looks: AgX - Punchy}
    - !<View> {name: AgX Greyscale, view_transform: AgX Base Rec.1886, display_colorspace: Rec.1886, looks: AgX - Greyscale}
    - !<View> {name: False Color, view_transform: AgX False Color Rec.709, display_colorspace: Rec.1886}
    - !<View> {name: Raw, colorspace: Non-Color}
  Rec.2020:
    - !<View> {name: Standard, view_transform: Standard, display_colorspace: Rec.2020}
    - !<View> {name: ACES 1.3, view_transform: ACES 1.3 Display P3, display_colorspace: Rec.2020}
    - !<View> {name: ACES 2.0, view_transform: ACES 2.0 Display P3, display_colorspace: Rec.2020}
    - !<View> {name: AgX, view_transform: AgX Base Rec.2020, display_colorspace: Rec.2020}
    - !<View> {name: AgX Punchy, view_transform: AgX Base Rec.2020, display_colorspace: Rec.2020, looks: AgX - Punchy}
    - !<View> {name: AgX Greyscale, view_transform: AgX Base Rec.2020, display_colorspace: Rec.2020, looks: AgX - Greyscale}
    - !<View> {name: False Color, view_transform: AgX False Color Rec.709, display_colorspace: Rec.2020}
    - !<View> {name: Raw, colorspace: Non-Color}
  Rec.2100-PQ:
    - !<View> {name: Standard, view_transform: Standard, display_colorspace: Rec.2100-PQ}
    - !<View> {name: ACES 1.3 - HDR 1000 nits, view_transform: ACES 1.1 Rec.2100-PQ - HDR 1000 nits, display_colorspace: Rec.2100-PQ}
    - !<View> {name: ACES 1.3 - HDR 2000 nits, view_transform: ACES 1.1 Rec.2100-PQ - HDR 2000 nits, display_colorspace: Rec.2100-PQ}
    - !<View> {name: ACES 1.3 - HDR 4000 nits, view_transform: ACES 1.1 Rec.2100-PQ - HDR 4000 nits, display_colorspace: Rec.2100-PQ}
    - !<View> {name: ACES 1.3 - SDR, view_transform: ACES 1.3 Rec.1886, display_colorspace: Rec.2100-PQ}
    - !<View> {name: ACES 2.0 - HDR 500 nits, view_transform: ACES 2.0 Rec.2100-PQ - HDR 500 nits, display_colorspace: Rec.2100-PQ}
    - !<View> {name: ACES 2.0 - HDR 1000 nits, view_transform: ACES 2.0 Rec.2100-PQ - HDR 1000 nits, display_colorspace: Rec.2100-PQ}
    - !<View> {name: ACES 2.0 - HDR 2000 nits, view_transform: ACES 2.0 Rec.2100-PQ - HDR 2000 nits, display_colorspace: Rec.2100-PQ}
    - !<View> {name: ACES 2.0 - HDR 4000 nits, view_transform: ACES 2.0 Rec.2100-PQ - HDR 4000 nits, display_colorspace: Rec.2100-PQ}
    - !<View> {name: ACES 2.0 - SDR, view_transform: ACES 2.0 Rec.1886, display_colorspace: Rec.2100-PQ}
    - !<View> {name: AgX - HDR 1000 nits, view_transform: AgX Rec.2100-HLG - HDR 1000 nits (P3 D65), display_colorspace: Rec.2100-PQ}
    - !<View> {name: AgX Punchy - HDR 1000 nits, view_transform: AgX Rec.2100-HLG - HDR 1000 nits (P3 D65), display_colorspace: Rec.2100-PQ, looks: AgX - Punchy}
    - !<View> {name: AgX Greyscale - HDR 1000 nits, view_transform: AgX Rec.2100-HLG - HDR 1000 nits (P3 D65), display_colorspace: Rec.2100-PQ, looks: AgX - Greyscale}
    - !<View> {name: AgX - SDR, view_transform: AgX Base Display P3, display_colorspace: Rec.2100-PQ}
    - !<View> {name: AgX Punchy - SDR, view_transform: AgX Base Display P3, display_colorspace: Rec.2100-PQ, looks: AgX - Punchy}
    - !<View> {name: AgX Greyscale - SDR, view_transform: AgX Base Display P3, display_colorspace: Rec.2100-PQ, looks: AgX - Greyscale}
    - !<View> {name: False Color, view_transform: AgX False Color Rec.709, display_colorspace: Rec.2100-PQ}
    - !<View> {name: Raw, colorspace: Non-Color}
  Rec.2100-HLG:
    - !<View> {name: Standard, view_transform: Standard, display_colorspace: Rec.2100-HLG}
    - !<View> {name: ACES 1.3 - HDR 1000 nits, view_transform: ACES 1.1 Rec.2100-PQ - HDR 1000 nits, display_colorspace: Rec.2100-HLG}
    - !<View> {name: ACES 1.3 - SDR, view_transform: ACES 1.3 Rec.1886, display_colorspace: Rec.2100-HLG}
    - !<View> {name: ACES 2.0 - HDR 1000 nits, view_transform: ACES 2.0 Rec.2100-PQ - HDR 1000 nits, display_colorspace: Rec.2100-HLG}
    - !<View> {name: ACES 2.0 - SDR, view_transform: ACES 2.0 Rec.1886, display_colorspace: Rec.2100-HLG}
    - !<View> {name: AgX - HDR 1000 nits, view_transform: AgX Rec.2100-HLG - HDR 1000 nits (P3 D65), display_colorspace: Rec.2100-HLG}
    - !<View> {name: AgX Punchy - HDR 1000 nits, view_transform: AgX Rec.2100-HLG - HDR 1000 nits (P3 D65), display_colorspace: Rec.2100-HLG, looks: AgX - Punchy}
    - !<View> {name: AgX Greyscale - HDR 1000 nits, view_transform: AgX Rec.2100-HLG - HDR 1000 nits (P3 D65), display_colorspace: Rec.2100-HLG, looks: AgX - Greyscale}
    - !<View> {name: AgX - SDR, view_transform: AgX Base Display P3, display_colorspace: Rec.2100-HLG}
    - !<View> {name: AgX Punchy - SDR, view_transform: AgX Base Display P3, display_colorspace: Rec.2100-HLG, looks: AgX - Punchy}
    - !<View> {name: AgX Greyscale - SDR, view_transform: AgX Base Display P3, display_colorspace: Rec.2100-HLG, looks: AgX - Greyscale}
    - !<View> {name: False Color, view_transform: AgX False Color Rec.709, display_colorspace: Rec.2100-HLG}
    - !<View> {name: Raw, colorspace: Non-Color}
  sRGB 2014:
    - !<View> {name: Standard, view_transform: Standard, display_colorspace: sRGB ICC 2014}
    - !<View> {name: ACES 1.3, view_transform: ACES 1.3 Rec.1886, display_colorspace: sRGB ICC 2014}
    - !<View> {name: ACES 2.0, view_transform: ACES 2.0 Rec.1886, display_colorspace: sRGB ICC 2014}
    - !<View> {name: Khronos PBR Neutral, view_transform: Khronos PBR Neutral sRGB, display_colorspace: sRGB ICC 2014}
    - !<View> {name: AgX, view_transform: AgX Base Rec.1886, display_colorspace: sRGB ICC 2014}
    - !<View> {name: AgX Punchy, view_transform: AgX Base Rec.1886, display_colorspace: sRGB ICC 2014, looks: AgX - Punchy}
    - !<View> {name: False Color, view_transform: AgX False Color Rec.709, display_colorspace: sRGB ICC 2014}
    - !<View> {name: AgX Greyscale, view_transform: AgX Base Rec.1886, display_colorspace: sRGB ICC 2014, looks: AgX - Greyscale}
    - !<View> {name: Filmic, view_transform: Filmic sRGB, display_colorspace: sRGB ICC 2014}
    - !<View> {name: Filmic Log, colorspace: Filmic Log}
    - !<View> {name: Raw, colorspace: Non-Color}
  Adobe RGB (1998):
    - !<View> {name: Standard, view_transform: Standard, display_colorspace: Adobe RGB (1998) Display}
    - !<View> {name: ACES 1.3, view_transform: ACES 1.3 Display P3, display_colorspace: Adobe RGB (1998) Display}
    - !<View> {name: ACES 2.0, view_transform: ACES 2.0 Display P3, display_colorspace: Adobe RGB (1998) Display}
    - !<View> {name: AgX, view_transform: AgX Base Display P3, display_colorspace: Adobe RGB (1998) Display}
    - !<View> {name: AgX Punchy, view_transform: AgX Base Display P3, display_colorspace: Adobe RGB (1998) Display, looks: AgX - Punchy}
    - !<View> {name: AgX Greyscale, view_transform: AgX Base Display P3, display_colorspace: Adobe RGB (1998) Display, looks: AgX - Greyscale}
    - !<View> {name: Filmic, view_transform: Filmic sRGB, display_colorspace: Adobe RGB (1998) Display}
    - !<View> {name: Filmic Log, colorspace: Filmic Log}
    - !<View> {name: False Color, view_transform: AgX False Color Rec.709, display_colorspace: Adobe RGB (1998) Display}
    - !<View> {name: Raw, colorspace: Non-Color}
  Custom Monitor (Standard Gamut):
    - !<View> {name: Standard, view_transform: Standard, display_colorspace: Custom Monitor ICC}
    - !<View> {name: ACES 1.3, view_transform: ACES 1.3 Rec.1886, display_colorspace: Custom Monitor ICC}
    - !<View> {name: ACES 2.0, view_transform: ACES 2.0 Rec.1886, display_colorspace: Custom Monitor ICC}
    - !<View> {name: Khronos PBR Neutral, view_transform: Khronos PBR Neutral sRGB, display_colorspace: Custom Monitor ICC}
    - !<View> {name: AgX, view_transform: AgX Base Rec.1886, display_colorspace: Custom Monitor ICC}
    - !<View> {name: AgX Punchy, view_transform: AgX Base Rec.1886, display_colorspace: Custom Monitor ICC, looks: AgX - Punchy}
    - !<View> {name: AgX Greyscale, view_transform: AgX Base Rec.1886, display_colorspace: Custom Monitor ICC, looks: AgX - Greyscale}
    - !<View> {name: Filmic, view_transform: Filmic sRGB, display_colorspace: Custom Monitor ICC}
    - !<View> {name: Filmic Log, colorspace: Filmic Log}
    - !<View> {name: False Color, view_transform: AgX False Color Rec.709, display_colorspace: Custom Monitor ICC}
    - !<View> {name: Raw, colorspace: Non-Color}
  Custom Monitor (Wide Gamut):
    - !<View> {name: Standard, view_transform: Standard, display_colorspace: Custom Monitor ICC}
    - !<View> {name: ACES 1.3, view_transform: ACES 1.3 Display P3, display_colorspace: Custom Monitor ICC}
    - !<View> {name: ACES 2.0, view_transform: ACES 2.0 Display P3, display_colorspace: Custom Monitor ICC}
    - !<View> {name: AgX, view_transform: AgX Base Display P3, display_colorspace: Custom Monitor ICC}
    - !<View> {name: AgX Punchy, view_transform: AgX Base Display P3, display_colorspace: Custom Monitor ICC, looks: AgX - Punchy}
    - !<View> {name: AgX Greyscale, view_transform: AgX Base Display P3, display_colorspace: Custom Monitor ICC, looks: AgX - Greyscale}
    - !<View> {name: Filmic, view_transform: Filmic sRGB, display_colorspace: Custom Monitor ICC}
    - !<View> {name: Filmic Log, colorspace: Filmic Log}
    - !<View> {name: False Color, view_transform: AgX False Color Rec.709, display_colorspace: Custom Monitor ICC}
    - !<View> {name: Raw, colorspace: Non-Color}

active_displays: [
  sRGB,
  sRGB 2014,
  Adobe RGB (1998),
  Display P3,
  Rec.1886,
  Rec.2020,
  Rec.2100-PQ,
  Rec.2100-HLG,
  Custom Monitor (Standard Gamut),
  Custom Monitor (Wide Gamut)
]

active_views: [
  AgX,
  AgX - HDR 1000 nits,
  AgX - SDR,
  AgX Punchy,
  AgX Punchy - HDR 1000 nits,
  AgX Punchy - SDR,
  AgX Greyscale,
  AgX Greyscale - HDR 1000 nits,
  AgX Greyscale - SDR,
  ACES 2.0,
  ACES 2.0 - HDR 500 nits,
  ACES 2.0 - HDR 1000 nits,
  ACES 2.0 - HDR 2000 nits,
  ACES 2.0 - HDR 4000 nits,
  ACES 2.0 - SDR,
  ACES 1.3,
  ACES 1.3 - HDR 1000 nits,
  ACES 1.3 - HDR 2000 nits,
  ACES 1.3 - HDR 4000 nits,
  ACES 1.3 - SDR,
  Filmic,
  Filmic Log,
  False Color,
  Standard,
  Raw
]

inactive_colorspaces: [Luminance Compensation Rec.2020]

display_colorspaces:
  - !<ColorSpace>
    name: Linear CIE-XYZ D65
    aliases: [lin_ciexyzd65_scene, cie_xyz_d65, CIE-XYZ-D65, XYZ, Linear CIE-XYZ I-D65]
    family: Linear
    equalitygroup:
    bitdepth: 32f
    description: |
      1931 CIE XYZ with adapted illuminant D65 white point
    isdata: false
    encoding: display-linear
    interop_id: lin_ciexyzd65_scene

  - !<ColorSpace>
    name: sRGB
    aliases: [srgb_rec709_display, srgb_rec709_scene, sRGB I-D65, srgb_display, sRGB - Display, Utility - sRGB - Texture, sRGB - Texture, srgb_tx, srgb_texture, Input - Generic - sRGB - Texture, "sRGB Display: 2.2 Gamma - Rec.709"]
    family: Display
    equalitygroup:
    bitdepth: 32f
    description: |
      sRGB IEC 61966-2-1 compound (piece-wise) encoding
    isdata: false
    interop_id: srgb_rec709_display
    from_display_reference: !<GroupTransform>
      children:
        - !<ColorSpaceTransform> {src: cie_xyz_d65_interchange, dst: Linear Rec.709}
        - !<ExponentWithLinearTransform> {gamma: 2.4, offset: 0.055, direction: inverse}

  - !<ColorSpace>
    name: Display P3
    aliases: [srgb_p3d65_display, Display P3 2.2, Display P3 I-D65, P3-D65 - Display, p3_d65_display, p3d65_display, AppleP3 sRGB OETF]
    family: Display
    equalitygroup:
    bitdepth: 32f
    description: |
      Apple's Display P3 with sRGB compound (piece-wise) encoding transfer function, common on Mac devices
    isdata: false
    interop_id: srgb_p3d65_display
    interchange:
      icc_profile_name: srgb_p3d65_display.icc
    from_display_reference: !<GroupTransform>
      children:
        - !<ColorSpaceTransform> {src: cie_xyz_d65_interchange, dst: Linear DCI-P3 D65}
        - !<ExponentWithLinearTransform> {gamma: 2.4, offset: 0.055, direction: inverse}

  - !<ColorSpace>
    name: Rec.1886
    aliases: [g24_rec709_display, BT.1886, BT.1886 2.4, BT.1886 EOTF, BT.1886 I-D65, Rec.1886 / Rec.709 Video - Display, rec1886_rec709_display, rec1886_rec709_video_display, Rec.1886 Rec.709 - Display, "Rec1886: 2.4 Gamma - Rec.709"]
    family: Display
    equalitygroup:
    bitdepth: 32f
    description: |
      BT.1886 2.4 Exponent EOTF Display, commonly used for TVs
    isdata: false
    interop_id: g24_rec709_display
    interchange:
      icc_profile_name: g24_rec709_display.icc
    from_display_reference: !<GroupTransform>
      children:
        - !<ColorSpaceTransform> {src: cie_xyz_d65_interchange, dst: Linear Rec.709}
        - !<ExponentTransform> {value: 2.4, direction: inverse}

  - !<ColorSpace>
    name: Rec.2020
    aliases: [g24_rec2020_display, blender:g24_rec2020_display, BT.2020, BT.2020 2.4, BT.2020 I-D65, Rec.1886 / Rec.2020 Video - Display, rec1886_rec2020_display, rec1886_rec2020_video_display, Rec.1886 Rec.2020 - Display, "Rec1886: 2.4 Gamma - Rec.2020"]
    family: Display
    equalitygroup:
    bitdepth: 32f
    description: |
      BT.2020 2.4 Exponent EOTF Display
    isdata: false
    interop_id: blender:g24_rec2020_display
    interchange:
      icc_profile_name: g24_rec2020_display.icc
    from_display_reference: !<GroupTransform>
      children:
        - !<ColorSpaceTransform> {src: cie_xyz_d65_interchange, dst: Linear Rec.2020}
        - !<ExponentTransform> {value: 2.4, direction: inverse}

  - !<ColorSpace>
    name: Rec.2100-PQ
    aliases: [pq_rec2020_display, rec2100_pq_display, Rec.2100-PQ - Display]
    family: Display
    equalitygroup: ""
    bitdepth: 32f
    description: Rec.2100-PQ 10000 nits peak display with reference white at 100 nits
    isdata: false
    encoding: hdr-video
    allocation: uniform
    interop_id: pq_rec2020_display
    from_display_reference: !<GroupTransform>
      children:
        - !<BuiltinTransform> {style: DISPLAY - CIE-XYZ-D65_to_REC.2100-PQ}

  - !<ColorSpace>
    name: Rec.2100-HLG
    aliases: [hlg_rec2020_display, rec2100_hlg_display, Rec.2100-HLG - Display]
    family: Display
    equalitygroup: ""
    bitdepth: 32f
    description: Rec.2100-HLG 1000 nits peak display with reference white at 100 nits
    isdata: false
    encoding: hdr-video
    allocation: uniform
    interop_id: hlg_rec2020_display
    from_display_reference: !<GroupTransform>
      children:
        - !<BuiltinTransform> {style: DISPLAY - CIE-XYZ-D65_to_REC.2100-HLG-1000nit}

  - !<ColorSpace>
    name: Filmic sRGB
    family: View Inverse
    description: |
      Filmic view transform for sRGB.
      May be used to convert backplates or matte paintings to the working space.
    interop_id: srgb_rec709_display
    from_display_reference: !<GroupTransform>
      children:
        - !<ColorSpaceTransform> {src: cie_xyz_d65_interchange, dst: Filmic Log}
        - !<FileTransform> {src: filmic_to_0-70_1-03.spi1d, interpolation: linear}

  - !<ColorSpace>
    name: AgX Base sRGB
    family: View Inverse
    description: |
      AgX view transform for sRGB.
      May be used to convert backplates or matte paintings to the working space.
    interop_id: srgb_rec709_display
    from_display_reference: !<GroupTransform>
      children:
        - !<ColorSpaceTransform> {src: cie_xyz_d65_interchange, dst: Linear FilmLight E-Gamut}
        - !<AllocationTransform> {allocation: lg2, vars: [-12.47393, 12.5260688117]}
        - !<FileTransform> {src: AgX_Base_sRGB.cube, interpolation: tetrahedral}
        - !<ColorSpaceTransform> {src: Rec.1886, dst: sRGB}

  - !<ColorSpace>
    name: ACES 1.3 sRGB
    family: View Inverse
    equalitygroup:
    bitdepth: 32f
    description: |
      ACES 1.3 view transform for sRGB.
      May be used to convert backplates or matte paintings to the working space.
    encoding: sdr-video
    isdata: false
    interop_id: srgb_rec709_display
    from_display_reference: !<GroupTransform>
      children:
        - !<ColorSpaceTransform> {src: cie_xyz_d65_interchange, dst: ACES2065-1}
        - !<BuiltinTransform> {style: ACES-OUTPUT - ACES2065-1_to_CIE-XYZ-D65 - SDR-VIDEO_1.0}
        - !<BuiltinTransform> {style: DISPLAY - CIE-XYZ-D65_to_sRGB}

  - !<ColorSpace>
    name: ACES 2.0 sRGB
    family: View Inverse
    equalitygroup:
    bitdepth: 32f
    description: |
      ACES 2.0 view transform for sRGB.
      May be used to convert backplates or matte paintings to the working space.
    encoding: sdr-video
    isdata: false
    interop_id: srgb_rec709_display
    from_display_reference: !<GroupTransform>
      children:
        - !<ColorSpaceTransform> {src: cie_xyz_d65_interchange, dst: ACES2065-1}
        - !<BuiltinTransform> {style: ACES-OUTPUT - ACES2065-1_to_CIE-XYZ-D65 - SDR-100nit-REC709_2.0}
        - !<BuiltinTransform> {style: DISPLAY - CIE-XYZ-D65_to_sRGB}

  - !<ColorSpace>
    name: Khronos PBR Neutral sRGB
    family: View Inverse
    equalitygroup:
    bitdepth: 32f
    description: |
      Khronos PBR Neutral view transform for sRGB.
      May be used to convert backplates or matte paintings to the working space.
    encoding: sdr-video
    isdata: false
    interop_id: srgb_rec709_display
    from_display_reference: !<GroupTransform>
      children:
        - !<ColorSpaceTransform> {src: cie_xyz_d65_interchange, dst: Linear Rec.709}
        - !<AllocationTransform> {allocation: lg2, vars: [-9, 10]}
        - !<FileTransform> {src: pbrNeutral.cube, interpolation: tetrahedral}
        - !<ColorSpaceTransform> {src: Linear Rec.709, dst: sRGB}

  - !<ColorSpace>
      name: sRGB ICC 2014
      aliases: [srgb_icc_display]
      family: Display
      equalitygroup: ""
      bitdepth: 32f
      description: |
        sRGB 2014 display space. Ensures exact match with ICC-managed photography software.
      isdata: false
      interchange:
        icc_profile_name: sRGB2014.icc
      from_display_reference: !<GroupTransform>
        children:
          - !<ColorSpaceTransform> {src: cie_xyz_d65_interchange, dst: Linear Rec.709}
          - !<ExponentWithLinearTransform> {gamma: 2.4, offset: 0.055, direction: inverse}

  - !<ColorSpace>
      name: Adobe RGB (1998) Display
      aliases: [adobergb_display]
      family: Display
      equalitygroup: ""
      bitdepth: 32f
      description: |
        Adobe RGB (1998) display space. Standard wide-gamut monitor target for print-oriented photographer workflows. 
      isdata: false
      interchange:
        icc_profile_name: compatibleWithAdobeRGB1998.icc
      from_display_reference: !<GroupTransform>
        children:
          - !<ColorSpaceTransform> {src: cie_xyz_d65_interchange, dst: Linear Adobe RGB}
          - !<ExponentTransform> {value: 2.19921875, direction: inverse}

  - !<ColorSpace>
      name: Custom Monitor ICC
      aliases: [custom_monitor_icc]
      family: Display
      equalitygroup: ""
      bitdepth: 32f
      description: |
        Custom display space loading a user-provided monitor.icc profile. Place your profile named 'monitor.icc' in the 'icc' folder.
      isdata: false
      from_display_reference: !<GroupTransform>
        children:
          # D65 => D50
          - !<MatrixTransform> {matrix: [1.0478112, 0.0228866, -0.0501269, 0, 0.0295424, 0.9904844, -0.0170491, 0, -0.0092345, 0.0150436, 0.7521316, 0, 0, 0, 0, 1]}
          - !<FileTransform> {src: monitor.icc, direction: inverse}

default_view_transform: Standard

view_transforms:
  - !<ViewTransform>
    name: Standard
    description: Apply only the display's standard transform without additional mappings
    from_scene_reference: !<BuiltinTransform> {style: UTILITY - ACES-AP0_to_CIE-XYZ-D65_BFD}

  - !<ViewTransform>
    name: Filmic sRGB
    family: Filmic
    description: |
      sRGB display space with Filmic view transform
    from_scene_reference: !<GroupTransform>
      children:
        - !<ColorSpaceTransform> {src: ACES2065-1, dst: Filmic Log}
        - !<FileTransform> {src: filmic_to_0-70_1-03.spi1d, interpolation: linear}
